src/icons/solid/metrics/graph.svg

<svg width="24" height="24" viewBox="0 0 24 24" fill="none" xmlns="http://www.w3.org/2000/svg">
<g clip-path="url(#clip0_6019_1074)">
<path d="M13.3691 8.2832C14.1617 8.30327 14.7836 8.92577 14.8037 9.69824V21.4951H16.0283V14.2725C16.0283 13.4801 16.6698 12.8482 17.4521 12.8379H20.2109C20.9934 12.8479 21.6257 13.4802 21.6357 14.2627V21.4951H22.248C22.6593 21.4952 23 21.8368 23 22.248C22.9999 22.6593 22.6593 22.9999 22.248 23H1.75195C1.34088 22.9998 1.00007 22.6592 1 22.248C1 21.8369 1.34084 21.4954 1.75195 21.4951H2.36426V17.0107C2.36449 16.2084 3.0067 15.5862 3.78906 15.5762H6.54785C7.33024 15.5863 7.96254 16.2086 7.97266 17.001V21.4951H9.19629V9.71777C9.2164 8.92541 9.83808 8.30345 10.6104 8.2832H13.3691Z" fill="#3C3B44"/>
<path d="M9.2666 1C10.4302 1.00009 11.2828 1.86288 11.373 2.94629L19.1982 5.25391C19.5795 4.74227 20.1916 4.41113 20.8838 4.41113C22.0474 4.41126 23 5.36442 23 6.53809C22.9998 7.70155 22.0473 8.65417 20.8838 8.6543C19.7201 8.6543 18.8566 7.79174 18.7764 6.69824L10.9521 4.39062C10.571 4.90221 9.95874 5.23334 9.2666 5.2334C9.03591 5.2334 8.81513 5.19324 8.60449 5.12305L4.94238 9.57715C5.13299 9.88814 5.2334 10.2496 5.2334 10.6309C5.23336 11.8044 4.29071 12.7468 3.11719 12.7471C1.94346 12.7471 1.00004 11.8046 1 10.6309C1 9.45711 1.95347 8.51367 3.11719 8.51367C3.34777 8.51372 3.56875 8.55384 3.7793 8.62402L7.43066 4.16992C7.25019 3.85907 7.14949 3.50822 7.14941 3.11719C7.14941 1.95347 8.10288 1 9.2666 1Z" fill="#3C3B44"/>
</g>
<defs>
<clipPath id="clip0_6019_1074">
<rect width="24" height="24" fill="white"/>
</clipPath>
</defs>
</svg>

<svg xmlns="http://www.w3.org/2000/svg" width="24" height="24" fill="none" viewBox="0 0 24 24"><g fill="currentColor" clip-path="url(#a)"><path d="M13.37 8.283c.792.02 1.414.643 1.434 1.415v11.797h1.224v-7.222c0-.793.642-1.425 1.424-1.435h2.759c.782.01 1.415.642 1.425 1.425v7.232h.612c.411 0 .752.342.752.753s-.34.752-.752.752H1.752A.76.76 0 0 1 1 22.248c0-.411.34-.753.752-.753h.612v-4.484c0-.803.643-1.425 1.425-1.435h2.759c.782.01 1.415.633 1.425 1.425v4.494h1.223V9.718a1.457 1.457 0 0 1 1.414-1.435z"/><path d="M9.267 1c1.163 0 2.016.863 2.106 1.946l7.825 2.308a2.1 2.1 0 0 1 1.686-.843c1.163 0 2.116.953 2.116 2.127a2.123 2.123 0 0 1-2.116 2.116c-1.164 0-2.027-.862-2.108-1.956l-7.824-2.307a2.095 2.095 0 0 1-2.348.732L4.942 9.577c.191.311.291.673.291 1.054a2.11 2.11 0 0 1-2.116 2.116 2.118 2.118 0 0 1 0-4.233c.23 0 .452.04.662.11L7.431 4.17a2.07 2.07 0 0 1-.282-1.053A2.125 2.125 0 0 1 9.267 1"/></g><defs><clipPath id="a"><path fill="currentColor" d="M0 0h24v24H0z"/></clipPath></defs></svg>
